X: 21063
T: The AERIAL QUADRILLES. NO. 3.--la Poule.
%R: jig
B: W. Hamilton "Universal Tune-Book" Vol. 2 Glasgow 1846 p.106 #3 (and p.107 #1)
S: http://s3-eu-west-1.amazonaws.com/itma.dl.printmaterial/book_pdfs/hamiltonvol2web.pdf
Z: 2016 John Chambers <jc:trillian.mit.edu>
M: 6/8
L: 1/8
K: G
% - - - - - - - - - - - - - - - - - - - - - - - - -
[|!p!\
D3- DGA | B3- BcB | A3- A^GA | d3- d^cd !f!|\
b2a gfe | dGA Bcd | fed cBA | G2B G2z |]
F/G/ !f!|\
AAA Ade | fff fba | eee e^de | fdB AFG |\
ABc def | Bcd efg | eba gfe | dDD DD"^D.C."D |]
A |!p!\
Az d cz d | Az f =fz ^f | ez g cz e | dcB A2A |\
Az d cz d | Az f =fz ^f | ez g Bz c | d3- "^D.C."d2 |]
% - - - - - - - - - - - - - - - - - - - - - - - - -

% (Continued from previous page)

%%sep 1 1 500
%%sep 1 1 500

